modules/feathericon/icons/beer.svg

<?xml version="1.0" encoding="UTF-8"?>
<svg width="24px" height="24px" viewBox="0 0 24 24" version="1.1" xmlns="http://www.w3.org/2000/svg" xmlns:xlink="http://www.w3.org/1999/xlink">
    <!-- Generator: sketchtool 52.2 (67145) - http://www.bohemiancoding.com/sketch -->
    <title>beer</title>
    <desc>Created with sketchtool.</desc>
    <g id="food" stroke="none" stroke-width="1" fill="none" fill-rule="evenodd">
        <g id="beer" fill="#000000">
            <path d="M17,16 C17,18 17,19 17,19 C17,20.1000004 16.1000004,21 15,21 L5,21 C3.9000001,21 3,20.1000004 3,19 L3,5 C3,3.8954305 3.8954305,3 5,3 L15,3 C16.1045695,3 17,3.8954305 17,5 L17,7 L19,7 C20.1045695,7 21,7.8954305 21,9 L21,14 C21,15.1045695 20.1045695,16 19,16 L17,16 Z M5,5 L5,8 L15,8 L15,5 L5,5 Z M5,10 L5,19 L15,19 L15,10 L5,10 Z M9,16 C9,16.5522847 8.55228475,17 8,17 C7.44771525,17 7,16.5522847 7,16 L7,13 C7,12.4477153 7.44771525,12 8,12 C8.55228475,12 9,12.4477153 9,13 L9,16 Z M13,16 C13,16.5522847 12.5522847,17 12,17 C11.4477153,17 11,16.5522847 11,16 L11,13 C11,12.4477153 11.4477153,12 12,12 C12.5522847,12 13,12.4477153 13,13 L13,16 Z M17,9 L19,9 L19,14 L17,14 L17,9 Z" id="Shape"></path>
        </g>
    </g>
</svg>

<svg width="24" height="24" viewBox="0 0 24 24" xmlns="http://www.w3.org/2000/svg"><path d="M17 16v3c0 1.1-.9 2-2 2H5c-1.1 0-2-.9-2-2V5a2 2 0 0 1 2-2h10a2 2 0 0 1 2 2v2h2a2 2 0 0 1 2 2v5a2 2 0 0 1-2 2h-2zM5 5v3h10V5H5zm0 5v9h10v-9H5zm4 6a1 1 0 0 1-2 0v-3a1 1 0 0 1 2 0v3zm4 0a1 1 0 0 1-2 0v-3a1 1 0 0 1 2 0v3zm4-7h2v5h-2V9z" fill="#000" fill-rule="evenodd"/></svg>
